src/assets/outline/SidebarRight.svg

<svg width="24" height="24" viewBox="0 0 24 24"  xmlns="http://www.w3.org/2000/svg">
<path d="M14.9702 22.75H8.97021C3.54022 22.75 1.22021 20.43 1.22021 15V9C1.22021 3.57 3.54022 1.25 8.97021 1.25H14.9702C20.4002 1.25 22.7202 3.57 22.7202 9V15C22.7202 20.43 20.4102 22.75 14.9702 22.75ZM8.97021 2.75C4.36021 2.75 2.72021 4.39 2.72021 9V15C2.72021 19.61 4.36021 21.25 8.97021 21.25H14.9702C19.5802 21.25 21.2202 19.61 21.2202 15V9C21.2202 4.39 19.5802 2.75 14.9702 2.75H8.97021Z" />
<path d="M14.9702 22.75C14.5602 22.75 14.2202 22.41 14.2202 22V2C14.2202 1.59 14.5602 1.25 14.9702 1.25C15.3802 1.25 15.7202 1.59 15.7202 2V22C15.7202 22.41 15.3902 22.75 14.9702 22.75Z" />
<path d="M7.97016 15.3099C7.78016 15.3099 7.59016 15.2399 7.44016 15.0899C7.15016 14.7999 7.15016 14.3199 7.44016 14.0299L9.47016 11.9999L7.44016 9.96988C7.15016 9.67988 7.15016 9.19988 7.44016 8.90988C7.73016 8.61988 8.21016 8.61988 8.50016 8.90988L11.0602 11.4699C11.3502 11.7599 11.3502 12.2399 11.0602 12.5299L8.50016 15.0899C8.36016 15.2399 8.17016 15.3099 7.97016 15.3099Z" />
</svg>

<?xml version="1.0" encoding="UTF-8"?>
<svg width="24" height="24" viewBox="0 0 24 24" xmlns="http://www.w3.org/2000/svg">
 <path d="m14.97 22.75h-6c-5.43 0-7.75-2.32-7.75-7.75v-6c0-5.43 2.32-7.75 7.75-7.75h6c5.43 0 7.75 2.32 7.75 7.75v6c0 5.43-2.31 7.75-7.75 7.75zm-6-20c-4.61 0-6.25 1.64-6.25 6.25v6c0 4.61 1.64 6.25 6.25 6.25h6c4.61 0 6.25-1.64 6.25-6.25v-6c0-4.61-1.64-6.25-6.25-6.25h-6z"/>
 <path d="m14.97 22.75c-0.41 0-0.75-0.34-0.75-0.75v-20c0-0.41 0.34-0.75 0.75-0.75s0.75 0.34 0.75 0.75v20c0 0.41-0.33 0.75-0.75 0.75z"/>
 <path d="m7.9702 15.31c-0.19 0-0.38-0.07-0.53-0.22-0.29-0.29-0.29-0.77 0-1.06l2.03-2.03-2.03-2.03c-0.29-0.29-0.29-0.77 0-1.06s0.77-0.29 1.06 0l2.56 2.56c0.29 0.29 0.29 0.77 0 1.06l-2.56 2.56c-0.14 0.15-0.33 0.22-0.53 0.22z"/>
</svg>
